X: 6769
T: Chao
R: jig
M: 6/8
K: Dmajor
|:DEF|:DEF DEF|G3 EFG|EFG EFG|A3 DEF|
DEF DEF|G3 EFG|A3 GFE|1 D3 DEF:|2 D3 DED||
|:B3 BFG|A3 AEF|G3 GFE|A3 D3|
B3 BFG|A3 AEF|G3 GFE|1 D3 DED:|2 D3 DEF||

